assets/emojis/SmirkingFace.svg

<svg width="125" height="126" viewBox="0 0 125 126" fill="none" xmlns="http://www.w3.org/2000/svg">
<circle cx="62.375" cy="63.1904" r="62.3496" fill="#F9B42F"/>
<path opacity="0.3" fill-rule="evenodd" clip-rule="evenodd" d="M113.311 99.3627C101.989 110.954 86.1869 118.15 68.704 118.15C34.2693 118.15 6.35442 90.2347 6.35442 55.7999C6.35442 42.4043 10.5789 29.9953 17.7682 19.8325C6.79052 31.0717 0.0253906 46.4434 0.0253906 63.3953C0.0253906 97.83 27.9403 125.745 62.375 125.745C83.4141 125.745 102.019 115.324 113.311 99.3627Z" fill="#BC8417"/>
<path fill-rule="evenodd" clip-rule="evenodd" d="M81.22 56.5444H94.4046C94.9413 56.5491 95.4545 56.7656 95.8323 57.1468C96.2102 57.5279 96.4222 58.0429 96.4222 58.5796C96.4222 59.1164 96.2102 59.6314 95.8323 60.0125C95.4545 60.3937 94.9413 60.6102 94.4046 60.6149H81.22C80.9498 60.6196 80.6813 60.5704 80.4303 60.4702C80.1793 60.37 79.9507 60.2209 79.758 60.0314C79.5652 59.842 79.4121 59.616 79.3077 59.3667C79.2032 59.1175 79.1494 58.8499 79.1494 58.5796C79.1494 58.0399 79.3638 57.5222 79.7455 57.1405C80.1272 56.7589 80.6449 56.5444 81.1846 56.5444H81.22Z" fill="#2C2A46"/>
<path fill-rule="evenodd" clip-rule="evenodd" d="M30.5273 56.5457H43.7119C43.9821 56.541 44.2506 56.5902 44.5016 56.6904C44.7526 56.7905 44.9812 56.9397 45.174 57.1292C45.3667 57.3186 45.5198 57.5446 45.6243 57.7938C45.7288 58.0431 45.7825 58.3107 45.7825 58.5809C45.7825 59.1207 45.5681 59.6384 45.1864 60.02C44.8047 60.4017 44.2871 60.6161 43.7473 60.6161H30.5273C29.9906 60.6115 29.4775 60.395 29.0996 60.0138C28.7217 59.6326 28.5097 59.1176 28.5098 58.5809C28.5097 58.0442 28.7217 57.5292 29.0996 57.148C29.4775 56.7669 29.9906 56.5504 30.5273 56.5457Z" fill="#2C2A46"/>
<path d="M48.7656 79.9637H71.1526C72.7034 79.9942 74.2024 79.3743 75.3218 78.2396C75.7408 77.8051 76.0716 77.285 76.2942 76.711C76.5168 76.137 76.6265 75.5211 76.6166 74.9009" stroke="#2C2A46" stroke-width="1.51134" stroke-miterlimit="10" stroke-linecap="round"/>
</svg>

<svg xmlns="http://www.w3.org/2000/svg" width="125" height="126" fill="none" viewBox="0 0 125 126"><circle cx="62.375" cy="63.19" r="62.35" fill="#f9b42f"/><path fill="#bc8417" fill-rule="evenodd" d="M113.311 99.363c-11.322 11.591-27.124 18.787-44.607 18.787-34.435 0-62.35-27.915-62.35-62.35 0-13.396 4.225-25.805 11.414-35.967C6.791 31.072.025 46.443.025 63.395c0 34.435 27.915 62.35 62.35 62.35 21.04 0 39.644-10.421 50.936-26.382" clip-rule="evenodd" opacity=".3"/><path fill="#2c2a46" fill-rule="evenodd" d="M81.22 56.544h13.185a2.035 2.035 0 0 1 0 4.07H81.22a2.035 2.035 0 1 1-.035-4.07zm-50.693.002h13.185a2.035 2.035 0 1 1 .035 4.07h-13.22a2.035 2.035 0 0 1 0-4.07" clip-rule="evenodd"/><path stroke="#2c2a46" stroke-linecap="round" stroke-miterlimit="10" stroke-width="1.511" d="M48.766 79.964h22.387c1.55.03 3.05-.59 4.169-1.724.419-.435.75-.955.972-1.529a4.8 4.8 0 0 0 .323-1.81"/></svg>
